packages/kaspersky-hexa-ui-icons/src/iconsSVGs/48/PasswordHide.svg

<svg width="48" height="48" viewBox="0 0 48 48" fill="none" xmlns="http://www.w3.org/2000/svg">
<path fill-rule="evenodd" clip-rule="evenodd" d="M31.36 27.12C31.7837 26.1345 32.0015 25.0728 32 24C32 21.8783 31.1571 19.8434 29.6569 18.3431C28.1566 16.8429 26.1217 16 24 16C22.949 16.0018 21.9088 16.2126 20.94 16.62L19.44 15.12C20.8496 14.39 22.4127 14.0061 24 14C29.5228 14 34 18.4772 34 24C34.0123 25.627 33.6206 27.2317 32.86 28.67L31.36 27.12ZM15.14 19.38C14.3794 20.8183 13.9877 22.423 14 24.05C14.0275 29.5533 18.4966 34.0001 24 34H24.05C25.634 33.9923 27.1934 33.6084 28.6 32.88L27.1 31.38C26.1188 31.7926 25.0645 32.0035 24 32C19.5817 32 16 28.4183 16 24C15.993 22.9138 16.2109 21.8379 16.64 20.84L15.14 19.38ZM23.93 10H24C35.24 10 43.31 19.09 45.76 23.9C43.7432 27.6053 40.9205 30.8108 37.5 33.28L39 34.75C42.7297 32.0224 45.7537 28.443 47.82 24.31L48.01 23.89L47.82 23.47C45 17.48 36.12 8 24 8H23.89C20.5918 8.03527 17.3367 8.75371 14.33 10.11L15.86 11.65C18.4155 10.5752 21.1577 10.0145 23.93 10ZM24.07 38H24C12.73 38 4.66 28.91 2.21 24.1C4.22679 20.3947 7.04949 17.1892 10.47 14.72L9 13.25C5.27391 15.9788 2.25345 19.5581 0.19 23.69L0 24.11L0.19 24.53C3 30.52 11.88 40 24 40H24.11C27.4082 39.9647 30.6633 39.2463 33.67 37.89L32.14 36.35C29.5845 37.4248 26.8423 37.9855 24.07 38ZM0 1.42L46.58 48L48 46.58L1.42 0L0 1.42Z"  fill="currentColor"/>
</svg>

<svg xmlns="http://www.w3.org/2000/svg" width="48" height="48" fill="none" viewBox="0 0 48 48"><path fill="currentColor" fill-rule="evenodd" d="M31.36 27.12A7.87 7.87 0 0 0 32 24a8 8 0 0 0-2.3431-5.6569A8 8 0 0 0 24 16a7.93 7.93 0 0 0-3.06.62l-1.5-1.5A10 10 0 0 1 24 14c5.5228 0 10 4.4772 10 10a9.83 9.83 0 0 1-1.14 4.67zm-16.22-7.74A9.83 9.83 0 0 0 14 24.05c.0275 5.5033 4.4966 9.9501 10 9.95h.05a10 10 0 0 0 4.55-1.12l-1.5-1.5A7.93 7.93 0 0 1 24 32c-4.4183 0-8-3.5817-8-8a7.87 7.87 0 0 1 .64-3.16zM23.93 10H24c11.24 0 19.31 9.09 21.76 13.9a28.19 28.19 0 0 1-8.26 9.38l1.5 1.47a29 29 0 0 0 8.82-10.44l.19-.42-.19-.42C45 17.48 36.12 8 24 8h-.11a23.87 23.87 0 0 0-9.56 2.11l1.53 1.54A21.1 21.1 0 0 1 23.93 10m.14 28H24C12.73 38 4.66 28.91 2.21 24.1a28.19 28.19 0 0 1 8.26-9.38L9 13.25A29 29 0 0 0 .19 23.69l-.19.42.19.42C3 30.52 11.88 40 24 40h.11a23.87 23.87 0 0 0 9.56-2.11l-1.53-1.54A21.1 21.1 0 0 1 24.07 38M0 1.42 46.58 48 48 46.58 1.42 0z" clip-rule="evenodd"/></svg>
